X: 1
T: Gigue De Joliette
M: 6/8
L: 1/8
R: jig
K: Gmaj
DGB dzd|^cde dBG|DGB dzd|^cde d2B|
Bdg fzf|Ace dBG|d^cd fed|cBA G3:|
DGB d^cd|eFF F2e|eFF eFF|ece dBG|
DGB d^cd|eFF F2d|d^cd fed|cBA G3:|
gbg faf|efe ded|cdc BdB|AGA B2g|
gbg faf|efe d2d|d^cd fed|cBA G3:|
